public/assets/gear-stroke-pinkpurple.svg

<svg width="238" height="238" viewBox="0 0 238 238" fill="none" xmlns="http://www.w3.org/2000/svg">
<path d="M119.079 81.5838C98.3732 81.5838 81.5727 98.3843 81.5727 119.105C81.5727 139.804 98.3732 156.634 119.079 156.634C139.785 156.634 156.467 139.804 156.467 119.105C156.467 98.3843 139.793 81.5838 119.079 81.5838ZM194.277 140.649L187.519 156.93L201.169 183.735L184.451 200.454L157.023 187.5L140.741 194.185L132.478 219.485L131.418 222.843H107.792L97.5654 194.281L81.2837 187.567L54.4415 201.158L37.73 184.454L50.6694 157.012L43.9625 140.745L15.3566 131.407V107.789L43.9329 97.5469L50.6397 81.2948L38.6193 57.5652L37.0334 54.4526L53.7227 37.7633L81.1874 50.6953L97.4468 43.9736L105.703 18.6877L106.77 15.338H130.396L140.63 43.9292L156.867 50.6508L183.747 37.0296L200.451 53.7189L187.511 81.1392L194.196 97.4283L222.854 106.751V130.362L194.285 140.641L194.277 140.649Z" stroke="#A571CD" stroke-width="8"/>
</svg>

<svg width="238" height="238" fill="none" xmlns="http://www.w3.org/2000/svg"><path d="M119.079 81.584c-20.706 0-37.506 16.8-37.506 37.521 0 20.699 16.8 37.529 37.506 37.529s37.388-16.83 37.388-37.529c0-20.72-16.674-37.521-37.388-37.521Zm75.198 59.065-6.758 16.281 13.65 26.805-16.718 16.719-27.428-12.954-16.282 6.685-8.263 25.3-1.06 3.358h-23.626l-10.227-28.562-16.281-6.714-26.843 13.591-16.711-16.704 12.94-27.442-6.708-16.267-28.605-9.338v-23.618l28.576-10.242 6.707-16.252-12.02-23.73-1.587-3.112 16.69-16.69 27.464 12.932 16.26-6.721 8.256-25.286 1.067-3.35h23.626l10.234 28.591 16.237 6.722 26.88-13.621 16.704 16.689-12.94 27.42 6.685 16.29 28.658 9.322v23.611l-28.569 10.279-.008.008Z" stroke="#A571CD" stroke-width="8"/></svg>
